flaticon/transportation/ship-2.svg

<svg xmlns="http://www.w3.org/2000/svg" width="32" height="32" viewBox="0 0 24 24">
    <path d="M24 13.152344L19.996094 11.839844 17.4375 3.304688 14.785156 3.304688 14.785156 1.855469C14.785156.964844 13.957031.238281 12.941406.238281L10.269531.238281C9.253906.238281 8.429688.964844 8.429688 1.855469L8.429688 3.304688 5.773438 3.304688 3.257812 11.703125 0 12.71875 2.992188 18.777344C1.9375 19.253906 1.109375 19.808594.890625 19.90625L1.296875 20.824219C1.765625 20.613281 4.382812 18.769531 6.160156 19.097656 6.589844 19.179688 7.753906 19.707031 7.925781 19.777344 9.980469 20.625 12.539062 20.632812 14.605469 19.789062 14.835938 19.695312 16.148438 19.082031 16.59375 18.972656 18.335938 18.542969 20.203125 19.433594 21.820312 20.300781L22.292969 19.417969C21.722656 19.113281 21.121094 18.804688 20.5 18.542969zM9.429688 1.855469C9.429688 1.519531 9.8125 1.238281 10.269531 1.238281L12.941406 1.238281C13.398438 1.238281 13.78125 1.519531 13.78125 1.855469L13.78125 3.304688 9.429688 3.304688zM6.519531 4.304688L16.695312 4.304688 18.835938 11.460938 11.609375 9.097656 4.410156 11.34375zM6.332031 18.113281C5.546875 17.992188 4.699219 18.148438 3.910156 18.414062L1.414062 13.328125 11.105469 10.304688 11.105469 19.417969C10.136719 19.398438 9.171875 19.207031 8.308594 18.851562 8.148438 18.785156 6.890625 18.199219 6.332031 18.113281zM16.355469 18.003906C15.816406 18.136719 14.445312 18.773438 14.226562 18.863281 13.5625 19.132812 12.84375 19.304688 12.105469 19.378906L12.105469 10.3125 22.453125 13.699219 19.535156 18.1875C18.503906 17.867188 17.429688 17.734375 16.355469 18.003906zM16.355469 20.941406C15.816406 21.074219 14.445312 21.710938 14.226562 21.800781 12.398438 22.546875 10.132812 22.542969 8.308594 21.789062 8.148438 21.722656 6.890625 21.140625 6.332031 21.050781 4.078125 20.699219 1.320312 22.65625.890625 22.84375L1.296875 23.761719C1.765625 23.554688 4.382812 21.707031 6.160156 22.039062 6.589844 22.117188 7.753906 22.644531 7.925781 22.714844 9.980469 23.566406 12.539062 23.570312 14.605469 22.726562 14.835938 22.632812 16.148438 22.023438 16.59375 21.914062 18.335938 21.480469 20.203125 22.371094 21.820312 23.238281L22.292969 22.359375C20.511719 21.402344 18.441406 20.425781 16.355469 20.941406zM16.355469 20.941406"/>
    <path d="M13.832031 12.933594L15.332031 14.035156 15.925781 13.230469 14.425781 12.125zM8.925781 12.125L7.429688 13.230469 8.023438 14.035156 9.519531 12.933594zM8.6875 5.417969L10.847656 5.417969 10.847656 6.417969 8.6875 6.417969zM13.085938 5.417969L15.246094 5.417969 15.246094 6.417969 13.085938 6.417969zM13.085938 5.417969"/>
</svg>

<svg xmlns="http://www.w3.org/2000/svg" width="32" height="32" viewBox="0 0 24 24">
    <path d="M24 13.152l-4.004-1.312-2.558-8.535h-2.653v-1.45c0-.89-.828-1.617-1.844-1.617H10.27c-1.016 0-1.84.727-1.84 1.617v1.45H5.773l-2.515 8.398L0 12.72l2.992 6.058c-1.054.477-1.883 1.032-2.101 1.13l.406.917c.469-.21 3.086-2.054 4.863-1.726.43.082 1.594.609 1.766.68 2.054.847 4.613.855 6.68.011.23-.094 1.542-.707 1.988-.816 1.742-.43 3.61.46 5.226 1.328l.473-.883a21.8 21.8 0 0 0-1.793-.875zM9.43 1.855c0-.335.383-.617.84-.617h2.671c.457 0 .84.282.84.617v1.45H9.43zm-2.91 2.45h10.175l2.14 7.156-7.226-2.363-7.199 2.246zm-.188 13.808c-.785-.12-1.633.035-2.422.301l-2.496-5.086 9.691-3.023v9.113a7.816 7.816 0 0 1-2.796-.566c-.16-.067-1.418-.653-1.977-.739zm10.023-.11c-.539.134-1.91.77-2.128.86a7.7 7.7 0 0 1-2.122.516v-9.067L22.453 13.7l-2.918 4.489c-1.031-.32-2.105-.454-3.18-.184zm0 0M16.355 20.941c-.539.133-1.91.77-2.128.86-1.829.746-4.094.742-5.918-.012-.16-.066-1.418-.648-1.977-.738-2.254-.352-5.012 1.605-5.441 1.793l.406.918c.469-.207 3.086-2.055 4.863-1.723.43.078 1.594.606 1.766.676 2.054.851 4.613.855 6.68.012.23-.094 1.542-.704 1.988-.813 1.742-.434 3.61.457 5.226 1.324l.473-.879c-1.781-.957-3.852-1.933-5.938-1.418zm0 0"/>
    <path d="M13.832 12.934l1.5 1.101.594-.805-1.5-1.105zm0 0M8.926 12.125L7.43 13.23l.593.805 1.497-1.101zm0 0M8.688 5.418h2.16v1h-2.16zm0 0M13.086 5.418h2.16v1h-2.16zm0 0"/>
</svg>
